src/assets/icons/svg/gear.svg

<?xml version="1.0" encoding="UTF-8"?>
<svg width="24px" height="24px" viewBox="0 0 24 24" version="1.1" xmlns="http://www.w3.org/2000/svg" xmlns:xlink="http://www.w3.org/1999/xlink">
    <g id="MVP" stroke="none" stroke-width="1" fill="none" fill-rule="evenodd">
        <g transform="translate(-1281.000000, -117.000000)" fill="#000000" fill-rule="nonzero" stroke="#000000" stroke-width="0.5">
            <g transform="translate(1281.000000, 118.000000)">
                <g id="Group">
                    <path d="M12.1411765,22.5882353 C11.1529412,22.5882353 10.2352941,21.9529412 9.88235294,21.0352941 L9.45882353,19.9058824 C9.38823529,19.6235294 9.17647059,19.4117647 8.89411765,19.3411765 C8.61176471,19.2705882 8.32941176,19.2705882 8.04705882,19.4117647 L7.05882353,19.8352941 C6.21176471,20.2588235 5.22352941,20.2588235 4.51764706,19.6941176 C3.52941176,18.9882353 3.24705882,17.7882353 3.67058824,16.7294118 L4.16470588,15.6 C4.30588235,15.3176471 4.30588235,15.0352941 4.16470588,14.7529412 C4.02352941,14.4705882 3.81176471,14.3294118 3.52941176,14.1882353 L2.47058824,13.8352941 C1.62352941,13.5529412 0.917647059,12.8470588 0.705882353,11.9294118 C0.494117647,10.7294118 1.12941176,9.67058824 2.18823529,9.24705882 L3.31764706,8.82352941 C3.6,8.75294118 3.81176471,8.54117647 3.88235294,8.25882353 C3.95294118,7.97647059 3.95294118,7.69411765 3.81176471,7.41176471 L3.45882353,6.42352941 C3.03529412,5.64705882 3.03529412,4.65882353 3.6,3.88235294 C4.30588235,2.89411765 5.50588235,2.54117647 6.56470588,3.03529412 L7.69411765,3.52941176 C7.97647059,3.67058824 8.25882353,3.67058824 8.54117647,3.52941176 C8.82352941,3.38823529 9.03529412,3.17647059 9.10588235,2.89411765 L9.45882353,1.69411765 C9.81176471,0.705882353 10.6588235,0.0705882353 11.7176471,-3.13474736e-16 C12.7764706,-3.13474736e-16 13.6941176,0.564705882 14.0470588,1.55294118 L14.4705882,2.68235294 C14.5411765,2.96470588 14.7529412,3.17647059 15.0352941,3.24705882 C15.3176471,3.31764706 15.6,3.31764706 15.8823529,3.17647059 L16.8705882,2.82352941 C17.7176471,2.4 18.7058824,2.4 19.4117647,2.96470588 C20.4,3.67058824 20.6823529,4.87058824 20.2588235,5.92941176 L19.7647059,6.98823529 C19.6235294,7.27058824 19.6235294,7.55294118 19.7647059,7.83529412 C19.9058824,8.11764706 20.1176471,8.25882353 20.4,8.4 L21.6705882,8.82352941 C22.5176471,9.10588235 23.2235294,9.81176471 23.3647059,10.6588235 C23.5764706,11.7882353 22.9411765,12.8470588 21.8823529,13.2705882 L20.4705882,13.7647059 C20.1882353,13.8352941 19.9764706,14.0470588 19.9058824,14.3294118 C19.8352941,14.6117647 19.8352941,14.8941176 19.9764706,15.1764706 L20.4705882,16.1647059 C20.8941176,17.0117647 20.8941176,18 20.3294118,18.7058824 C19.6235294,19.6941176 18.4235294,20.0470588 17.3647059,19.5529412 L16.2352941,19.1294118 C15.9529412,18.9882353 15.6705882,18.9882353 15.3882353,19.1294118 C15.1058824,19.2705882 14.8941176,19.4823529 14.8235294,19.7647059 L14.4705882,20.9647059 C14.1176471,21.8823529 13.2705882,22.5882353 12.1411765,22.5882353 C12.2117647,22.5882353 12.1411765,22.5882353 12.1411765,22.5882353 Z M8.54117647,17.7882353 C8.82352941,17.7882353 9.10588235,17.8588235 9.38823529,17.9294118 C10.0235294,18.1411765 10.5176471,18.7058824 10.8,19.3411765 L11.2235294,20.4705882 C11.4352941,21.1058824 12,21.1058824 12.2117647,21.1058824 C12.5647059,21.1058824 12.9882353,20.8941176 13.1294118,20.4 L13.4823529,19.2 C13.6941176,18.5647059 14.1882353,18 14.8235294,17.7176471 C15.4588235,17.4352941 16.1647059,17.4352941 16.8,17.7176471 L17.9294118,18.2117647 C18.4941176,18.4941176 18.9176471,18.0705882 19.0588235,18 C19.2705882,17.7176471 19.4823529,17.2941176 19.2,16.8 L18.6352941,15.6705882 C18.3529412,15.0352941 18.2823529,14.3294118 18.5647059,13.6941176 C18.7764706,13.0588235 19.3411765,12.5647059 19.9764706,12.2823529 L21.3176471,11.7882353 C21.8117647,11.5764706 21.9529412,11.2235294 21.9529412,10.8705882 C21.9529412,10.7294118 21.8823529,10.1647059 21.3176471,10.0235294 L19.9764706,9.6 C19.3411765,9.38823529 18.7764706,8.89411765 18.4941176,8.25882353 C18.2117647,7.62352941 18.2117647,6.91764706 18.4941176,6.28235294 L18.9882353,5.15294118 C19.2,4.65882353 18.9882353,4.23529412 18.7764706,4.02352941 C18.6352941,3.88235294 18.2117647,3.52941176 17.6470588,3.88235294 L16.5176471,4.44705882 L16.5176471,4.44705882 C15.8823529,4.72941176 15.1764706,4.8 14.5411765,4.51764706 C13.9058824,4.30588235 13.4117647,3.74117647 13.1294118,3.10588235 L12.7058824,2.04705882 C12.4235294,1.48235294 11.8588235,1.41176471 11.7176471,1.41176471 C11.3647059,1.41176471 10.9411765,1.62352941 10.8,2.11764706 L10.4470588,3.31764706 C10.2352941,3.95294118 9.74117647,4.51764706 9.10588235,4.8 C8.47058824,5.01176471 7.76470588,5.01176471 7.12941176,4.8 L6,4.23529412 C5.36470588,4.02352941 4.94117647,4.37647059 4.87058824,4.51764706 C4.58823529,4.72941176 4.44705882,5.15294118 4.65882353,5.64705882 L5.22352941,6.77647059 C5.50588235,7.41176471 5.57647059,8.11764706 5.29411765,8.75294118 C5.01176471,9.38823529 4.51764706,9.88235294 3.88235294,10.1647059 L2.82352941,10.5882353 C2.32941176,10.7294118 2.11764706,11.2235294 2.11764706,11.5764706 C2.11764706,11.7176471 2.18823529,12.2823529 2.82352941,12.4941176 L4.02352941,12.8470588 C4.65882353,13.0588235 5.22352941,13.5529412 5.50588235,14.1882353 C5.78823529,14.8235294 5.78823529,15.5294118 5.50588235,16.1647059 L4.94117647,17.2941176 C4.72941176,17.7882353 4.94117647,18.2117647 5.15294118,18.4235294 C5.29411765,18.5647059 5.71764706,18.9176471 6.28235294,18.5647059 L7.41176471,18 C7.76470588,17.8588235 8.11764706,17.7882353 8.54117647,17.7882353 Z" id="Shape"></path>
                    <path d="M12,15.5294118 C9.67058824,15.5294118 7.76470588,13.6235294 7.76470588,11.2941176 C7.76470588,8.96470588 9.67058824,7.05882353 12,7.05882353 C14.3294118,7.05882353 16.2352941,8.96470588 16.2352941,11.2941176 C16.2352941,13.6235294 14.3294118,15.5294118 12,15.5294118 Z M12,8.47058824 C10.4470588,8.47058824 9.17647059,9.74117647 9.17647059,11.2941176 C9.17647059,12.8470588 10.4470588,14.1176471 12,14.1176471 C13.5529412,14.1176471 14.8235294,12.8470588 14.8235294,11.2941176 C14.8235294,9.74117647 13.5529412,8.47058824 12,8.47058824 Z" id="Shape"></path>
                </g>
            </g>
        </g>
    </g>
</svg>

<?xml version="1.0" encoding="UTF-8"?><svg version="1.1" viewBox="0 0 24 24" xmlns="http://www.w3.org/2000/svg"><g fill="none" fill-rule="evenodd"><g transform="translate(-1281 -117)" fill="#000" fill-rule="nonzero" stroke="#000" stroke-width=".5"><g transform="translate(1281 118)"><path id="a" d="m12.141 22.588c-0.98824 0-1.9059-0.63529-2.2588-1.5529l-0.42353-1.1294c-0.070588-0.28235-0.28235-0.49412-0.56471-0.56471-0.28235-0.070588-0.56471-0.070588-0.84706 0.070588l-0.98824 0.42353c-0.84706 0.42353-1.8353 0.42353-2.5412-0.14118-0.98824-0.70588-1.2706-1.9059-0.84706-2.9647l0.49412-1.1294c0.14118-0.28235 0.14118-0.56471 0-0.84706-0.14118-0.28235-0.35294-0.42353-0.63529-0.56471l-1.0588-0.35294c-0.84706-0.28235-1.5529-0.98824-1.7647-1.9059-0.21176-1.2 0.42353-2.2588 1.4824-2.6824l1.1294-0.42353c0.28235-0.070588 0.49412-0.28235 0.56471-0.56471 0.070588-0.28235 0.070588-0.56471-0.070588-0.84706l-0.35294-0.98824c-0.42353-0.77647-0.42353-1.7647 0.14118-2.5412 0.70588-0.98824 1.9059-1.3412 2.9647-0.84706l1.1294 0.49412c0.28235 0.14118 0.56471 0.14118 0.84706 0 0.28235-0.14118 0.49412-0.35294 0.56471-0.63529l0.35294-1.2c0.35294-0.98824 1.2-1.6235 2.2588-1.6941 1.0588 0 1.9765 0.56471 2.3294 1.5529l0.42353 1.1294c0.070588 0.28235 0.28235 0.49412 0.56471 0.56471 0.28235 0.070588 0.56471 0.070588 0.84706-0.070588l0.98824-0.35294c0.84706-0.42353 1.8353-0.42353 2.5412 0.14118 0.98824 0.70588 1.2706 1.9059 0.84706 2.9647l-0.49412 1.0588c-0.14118 0.28235-0.14118 0.56471 0 0.84706s0.35294 0.42353 0.63529 0.56471l1.2706 0.42353c0.84706 0.28235 1.5529 0.98824 1.6941 1.8353 0.21176 1.1294-0.42353 2.1882-1.4824 2.6118l-1.4118 0.49412c-0.28235 0.070588-0.49412 0.28235-0.56471 0.56471-0.070588 0.28235-0.070588 0.56471 0.070588 0.84706l0.49412 0.98824c0.42353 0.84706 0.42353 1.8353-0.14118 2.5412-0.70588 0.98824-1.9059 1.3412-2.9647 0.84706l-1.1294-0.42353c-0.28235-0.14118-0.56471-0.14118-0.84706 0-0.28235 0.14118-0.49412 0.35294-0.56471 0.63529l-0.35294 1.2c-0.35294 0.91765-1.2 1.6235-2.3294 1.6235 0.070588 0 0 0 0 0zm-3.6-4.8c0.28235 0 0.56471 0.070588 0.84706 0.14118 0.63529 0.21176 1.1294 0.77647 1.4118 1.4118l0.42353 1.1294c0.21176 0.63529 0.77647 0.63529 0.98824 0.63529 0.35294 0 0.77647-0.21176 0.91765-0.70588l0.35294-1.2c0.21176-0.63529 0.70588-1.2 1.3412-1.4824 0.63529-0.28235 1.3412-0.28235 1.9765 0l1.1294 0.49412c0.56471 0.28235 0.98824-0.14118 1.1294-0.21176 0.21176-0.28235 0.42353-0.70588 0.14118-1.2l-0.56471-1.1294c-0.28235-0.63529-0.35294-1.3412-0.070588-1.9765 0.21176-0.63529 0.77647-1.1294 1.4118-1.4118l1.3412-0.49412c0.49412-0.21176 0.63529-0.56471 0.63529-0.91765 0-0.14118-0.070588-0.70588-0.63529-0.84706l-1.3412-0.42353c-0.63529-0.21176-1.2-0.70588-1.4824-1.3412-0.28235-0.63529-0.28235-1.3412 0-1.9765l0.49412-1.1294c0.21176-0.49412 0-0.91765-0.21176-1.1294-0.14118-0.14118-0.56471-0.49412-1.1294-0.14118l-1.1294 0.56471c-0.63529 0.28235-1.3412 0.35294-1.9765 0.070588-0.63529-0.21176-1.1294-0.77647-1.4118-1.4118l-0.42353-1.0588c-0.28235-0.56471-0.84706-0.63529-0.98824-0.63529-0.35294 0-0.77647 0.21176-0.91765 0.70588l-0.35294 1.2c-0.21176 0.63529-0.70588 1.2-1.3412 1.4824-0.63529 0.21176-1.3412 0.21176-1.9765 0l-1.1294-0.56471c-0.63529-0.21176-1.0588 0.14118-1.1294 0.28235-0.28235 0.21176-0.42353 0.63529-0.21176 1.1294l0.56471 1.1294c0.28235 0.63529 0.35294 1.3412 0.070588 1.9765-0.28235 0.63529-0.77647 1.1294-1.4118 1.4118l-1.0588 0.42353c-0.49412 0.14118-0.70588 0.63529-0.70588 0.98824 0 0.14118 0.070588 0.70588 0.70588 0.91765l1.2 0.35294c0.63529 0.21176 1.2 0.70588 1.4824 1.3412s0.28235 1.3412 0 1.9765l-0.56471 1.1294c-0.21176 0.49412 0 0.91765 0.21176 1.1294 0.14118 0.14118 0.56471 0.49412 1.1294 0.14118l1.1294-0.56471c0.35294-0.14118 0.70588-0.21176 1.1294-0.21176z"/><path d="m12 15.529c-2.3294 0-4.2353-1.9059-4.2353-4.2353 0-2.3294 1.9059-4.2353 4.2353-4.2353 2.3294 0 4.2353 1.9059 4.2353 4.2353 0 2.3294-1.9059 4.2353-4.2353 4.2353zm0-7.0588c-1.5529 0-2.8235 1.2706-2.8235 2.8235 0 1.5529 1.2706 2.8235 2.8235 2.8235s2.8235-1.2706 2.8235-2.8235c0-1.5529-1.2706-2.8235-2.8235-2.8235z"/></g></g></g></svg>
